svg/building/pavilion_fill.svg

<?xml version="1.0" encoding="UTF-8"?>
<svg width="24px" height="24px" viewBox="0 0 24 24" version="1.1" xmlns="http://www.w3.org/2000/svg" xmlns:xlink="http://www.w3.org/1999/xlink">
    <title>pavilon_fill</title>
    <g id="页面-1" stroke="none" stroke-width="1" fill="none" fill-rule="evenodd">
        <g id="Building" transform="translate(-816.000000, -48.000000)">
            <g id="pavilon_fill" transform="translate(816.000000, 48.000000)">
                 <path d="M24,0 L24,24 L0,24 L0,0 L24,0 Z M12.5934901,23.257841 L12.5819402,23.2595131 L12.5108777,23.2950439 L12.4918791,23.2987469 L12.4918791,23.2987469 L12.4767152,23.2950439 L12.4056548,23.2595131 C12.3958229,23.2563662 12.3870493,23.2590235 12.3821421,23.2649074 L12.3780323,23.275831 L12.360941,23.7031097 L12.3658947,23.7234994 L12.3769048,23.7357139 L12.4804777,23.8096931 L12.4953491,23.8136134 L12.4953491,23.8136134 L12.5071152,23.8096931 L12.6106902,23.7357139 L12.6232938,23.7196733 L12.6232938,23.7196733 L12.6266527,23.7031097 L12.609561,23.275831 C12.6075724,23.2657013 12.6010112,23.2592993 12.5934901,23.257841 L12.5934901,23.257841 Z M12.8583906,23.1452862 L12.8445485,23.1473072 L12.6598443,23.2396597 L12.6498822,23.2499052 L12.6498822,23.2499052 L12.6471943,23.2611114 L12.6650943,23.6906389 L12.6699349,23.7034178 L12.6699349,23.7034178 L12.678386,23.7104931 L12.8793402,23.8032389 C12.8914285,23.8068999 12.9022333,23.8029875 12.9078286,23.7952264 L12.9118235,23.7811639 L12.8776777,23.1665331 C12.8752882,23.1545897 12.8674102,23.1470016 12.8583906,23.1452862 L12.8583906,23.1452862 Z M12.1430473,23.1473072 C12.1332178,23.1423925 12.1221763,23.1452606 12.1156365,23.1525954 L12.1099173,23.1665331 L12.0757714,23.7811639 C12.0751323,23.7926639 12.0828099,23.8018602 12.0926481,23.8045676 L12.108256,23.8032389 L12.3092106,23.7104931 L12.3186497,23.7024347 L12.3186497,23.7024347 L12.3225043,23.6906389 L12.340401,23.2611114 L12.337245,23.2485176 L12.337245,23.2485176 L12.3277531,23.2396597 L12.1430473,23.1473072 Z" id="MingCute" fill-rule="nonzero"></path>
                <path d="M12.9028,2.56981 C12.5303,1.82675 11.4694,1.82658 11.0968,2.56982 C10.1521,4.45417 9.13287,5.66566 7.8883,6.47653 C6.63458,7.29336 5.06061,7.76379 2.89958,8.00483 C2.30913,8.07069 1.92102,8.6191 2.01565,9.17758 C2.34598,11.1271 3.68037,12.1001 4.81996,12.5549 C4.87933,12.5786 4.93931,12.6016 4.99982,12.6237 L4.99982,19.9999 L3.99982,19.9999 C3.44753,19.9999 2.99982,20.4476 2.99982,20.9999 C2.99982,21.5522 3.44753,21.9999 3.99982,21.9999 L19.9998,21.9999 C20.5521,21.9999 20.9998,21.5522 20.9998,20.9999 C20.9998,20.4476 20.5521,19.9999 19.9998,19.9999 L18.9998,19.9999 L18.9998,12.6238 C19.0602,12.6017 19.1201,12.5787 19.1797,12.5549 C20.3192,12.1001 21.6536,11.1271 21.984,9.17758 C22.0786,8.61901 21.6904,8.07068 21.1,8.00483 C18.939,7.76379 17.365,7.29336 16.1113,6.47653 C14.8667,5.66565 13.8475,4.45417 12.9028,2.56981 Z M16.9998,12.9999 C16.9331,12.9999 16.5648,13 15.9998,13 L15.9998,19.9999 L16.9998,19.9999 L16.9998,12.9999 Z M13.9998,13 C12.7693,13 11.3259,12.9999 9.99982,12.9999 L9.99982,19.9999 L13.9998,19.9999 L13.9998,13 Z M7.99982,12.9999 C7.62871,12.9999 7.29118,12.9999 6.99982,12.9999 L6.99982,19.9999 L7.99982,19.9999 L7.99982,12.9999 Z" id="形状" fill="#09244B"></path>
            </g>
        </g>
    </g>
</svg>

<svg xmlns="http://www.w3.org/2000/svg" width="24" height="24"><g fill="none" fill-rule="evenodd"><path d="M24 0v24H0V0h24ZM12.593 23.258l-.011.002-.071.035-.02.004-.014-.004-.071-.035c-.01-.004-.019-.001-.024.005l-.004.01-.017.428.005.02.01.013.104.074.015.004.012-.004.104-.074.012-.016.004-.017-.017-.427c-.002-.01-.009-.017-.017-.018Zm.265-.113-.013.002-.185.093-.01.01-.003.011.018.43.005.012.008.007.201.093c.012.004.023 0 .029-.008l.004-.014-.034-.614c-.003-.012-.01-.02-.02-.022Zm-.715.002a.023.023 0 0 0-.027.006l-.006.014-.034.614c0 .012.007.02.017.024l.015-.002.201-.093.01-.008.004-.011.017-.43-.003-.012-.01-.01-.184-.092Z"/><path fill="#09244B" d="M12.903 2.57a1.01 1.01 0 0 0-1.806 0c-.945 1.884-1.964 3.096-3.209 3.907-1.253.816-2.827 1.287-4.988 1.528a1.01 1.01 0 0 0-.884 1.173c.33 1.95 1.664 2.922 2.804 3.377l.18.069V20H4a1 1 0 1 0 0 2h16a1 1 0 1 0 0-2h-1v-7.376c.06-.022.12-.045.18-.07 1.14-.454 2.474-1.427 2.804-3.376a1.01 1.01 0 0 0-.884-1.173c-2.161-.241-3.735-.712-4.989-1.528-1.244-.811-2.264-2.023-3.208-3.907ZM17 13h-1v7h1v-7Zm-3 0h-4v7h4v-7Zm-6 0H7v7h1v-7Z"/></g></svg>
